!!!OTL: 239. Kozatshke (yidishe)
!!!Genre:	Kozatshke (yidishe)
!!!Mode:	Major
!!!Listening/dance:	dance
!!!One_Mode:	yes
**kern
*I"P1
*clefG2
*k[f#]
*G:
*M2/4
*>A
=1
4dd
(8qcc#X/
8dd)
(8qcc#/
8ddJ)
=2
(8qcc#X/
8ddL)
(8qcc#/
8ddJ)
8bL
16aL
16gJJ
=3
16f#LL
16g
16a
16bJJ
16ccLL
16dd
16ee
16ff#JJ
=4
16ggLL
16ff#
16gg
16eeJJ
8ddL
8ccJ
=5
4dd
(8qcc#X/
8ddL)
(8qcc#/
8ddJ)
=6
(8qcc#X/
8ddL)
(8qcc#/
8ddJ)
8bL
16aL
16gJJ
=7
16f#LL
16g
16a
16bJJ
16ccLL
16a
16f#
16aJJ
=8
8gL
8b
8gJ
8r
=9:|!|:
*>B
(8qaa/
16ggLL)
16ff#J
8eeJ
(8qff#/
16eeLL)
16ddJ
8ccJ
=10
16bLL
16ddJJ
4g
8b
=11
(16aLL
16ccJJ
4a)
8a
=12
16gLL
16a
16b
16ccJJ
16ddLL
16ee
16ff#
16ggJJ
=13
(8qaa/
16ggLL)
16ff#J
8eeJ
16eeLL
16ddJ
8ccJ
=14
16bLL
16ccJJ
4dd
8gg
=15
16ggLL
16ff#
16aa
16ggJJ
16eeLL
16b
16cc
16aJJ
=16
8gL
8ggJ
8g
8r
=:|!
*-
